germany/municipalities/07231071.svg

<?xml version="1.0" encoding="UTF-8" standalone="no"?>
<!-- Created with Inkscape (http://www.inkscape.org/) -->

<svg
   xmlns:dc="http://purl.org/dc/elements/1.1/"
   xmlns:cc="http://creativecommons.org/ns#"
   xmlns:rdf="http://www.w3.org/1999/02/22-rdf-syntax-ns#"
   xmlns:svg="http://www.w3.org/2000/svg"
   xmlns="http://www.w3.org/2000/svg"
   xmlns:sodipodi="http://sodipodi.sourceforge.net/DTD/sodipodi-0.dtd"
   xmlns:inkscape="http://www.inkscape.org/namespaces/inkscape"
   width="179.24283mm"
   height="209.34358mm"
   viewBox="0 0 179.24283 209.34358"
   version="1.1"
   id="svg6419"
   inkscape:version="0.92.4 (5da689c313, 2019-01-14)"
   sodipodi:docname="DEU Kommen COA.svg">
  <defs
     id="defs6413" />
  <sodipodi:namedview
     id="base"
     pagecolor="#ffffff"
     bordercolor="#666666"
     borderopacity="1.0"
     inkscape:pageopacity="0.0"
     inkscape:pageshadow="2"
     inkscape:zoom="0.69260142"
     inkscape:cx="338.7266"
     inkscape:cy="395.60991"
     inkscape:document-units="mm"
     inkscape:current-layer="layer1"
     showgrid="false"
     inkscape:window-width="1366"
     inkscape:window-height="745"
     inkscape:window-x="-8"
     inkscape:window-y="-8"
     inkscape:window-maximized="1"
     fit-margin-top="0"
     fit-margin-left="0"
     fit-margin-right="0"
     fit-margin-bottom="0"
     inkscape:snap-midpoints="true"
     inkscape:snap-smooth-nodes="true"
     inkscape:snap-center="true"
     inkscape:snap-object-midpoints="true"
     inkscape:snap-nodes="true"
     inkscape:object-paths="true" />
  <metadata
     id="metadata6416">
    <rdf:RDF>
      <cc:Work
         rdf:about="">
        <dc:format>image/svg+xml</dc:format>
        <dc:type
           rdf:resource="http://purl.org/dc/dcmitype/StillImage" />
        <dc:title />
      </cc:Work>
    </rdf:RDF>
  </metadata>
  <g
     inkscape:label="Ebene 1"
     inkscape:groupmode="layer"
     id="layer1"
     transform="translate(-6.4077612,-8.4974639)">
    <path
       style="fill:#ffffff;fill-rule:evenodd;stroke:none;stroke-width:3.10444427;stroke-opacity:1"
       inkscape:connector-curvature="0"
       d="M 184.08653,10.049687 183.1933,127.63036 c -1.94916,49.45939 -40.46056,88.63079 -87.164162,88.65847 -46.66153,-0.0607 -85.18733,-39.24615 -87.1640995,-88.65847 L 7.9718185,10.049687 H 96.027048 Z"
       id="path10563-0-6-7-5-1"
       sodipodi:nodetypes="ccccccc" />
    <path
       style="fill:#ff0000;fill-opacity:1;stroke:#000000;stroke-width:7.99999952;stroke-linecap:round;stroke-linejoin:round;stroke-miterlimit:4;stroke-dasharray:none;stroke-opacity:1"
       d="M 5.9121094 5.8671875 L 7.0292969 152.91211 L 158.93359 443.11133 L 246.35742 610.12305 L 338.07812 785.34766 C 338.29459 785.34838 338.51001 785.35323 338.72656 785.35352 C 338.94245 785.35339 339.15725 785.34823 339.37305 785.34766 L 431.0957 610.12305 L 535.26367 411.12109 L 670.42383 152.91211 L 671.54102 5.8671875 L 562.6582 5.8671875 L 338.72656 433.66406 L 114.79492 5.8671875 L 5.9121094 5.8671875 z "
       transform="matrix(0.26458333,0,0,0.26458333,6.4077612,8.4974639)"
       id="rect906" />
    <path
       style="fill:#ffffff;stroke:#000000;stroke-width:5;stroke-linecap:butt;stroke-linejoin:round;stroke-miterlimit:4;stroke-dasharray:none;stroke-opacity:1;fill-opacity:1"
       d="M 95.789062 87.773438 C 92.232414 87.836615 88.589202 88.706804 85.246094 89.744141 C 80.350619 91.263167 76.228317 94.665633 72.039062 97.619141 C 55.175941 109.50797 24.316406 137.04102 24.316406 137.04102 L 45.394531 162.59375 C 45.394531 162.59375 60.06254 153.80341 67.275391 149.21484 C 73.77278 145.08142 86.542969 136.46875 86.542969 136.46875 C 86.542969 136.46875 84.441098 154.98984 81.662109 163.82617 C 78.86405 172.72313 69.925781 189.22656 69.925781 189.22656 C 69.925781 189.22656 160.55456 312.02561 197.06445 378.77148 C 225.5191 430.79105 249.97556 485.40833 268.00977 541.89258 C 280.138 579.87898 292.69531 658.94336 292.69531 658.94336 C 292.69531 658.94336 313.39233 591.46049 313.30469 556.69141 C 313.16376 500.80365 298.19529 445.11856 279.34961 392.50391 C 250.46289 311.85595 203.90677 238.44226 159.77148 165.02148 C 146.54109 143.01226 133.34392 120.63891 116.36523 101.37305 C 112.14073 96.579465 108.05778 90.740136 102.01367 88.667969 C 100.02698 87.986843 97.923051 87.735531 95.789062 87.773438 z M 581.66406 87.773438 C 579.53007 87.735531 577.42614 87.986843 575.43945 88.667969 C 569.39535 90.740136 565.31242 96.579465 561.08789 101.37305 C 544.10923 120.63891 530.91203 143.01226 517.68164 165.02148 C 473.54636 238.44227 426.99022 311.85595 398.10352 392.50391 C 379.25781 445.11856 364.28938 500.80361 364.14844 556.69141 C 364.06075 591.46049 384.75781 658.94336 384.75781 658.94336 C 384.75781 658.94336 397.31516 579.87707 409.44336 541.89062 C 427.47756 485.40642 451.93401 430.79105 480.38867 378.77148 C 516.89857 312.0256 607.52734 189.22656 607.52734 189.22656 C 607.52734 189.22656 598.58908 172.72313 595.79102 163.82617 C 593.01204 154.98984 590.91016 136.46875 590.91016 136.46875 C 590.91016 136.46875 603.68035 145.08142 610.17773 149.21484 C 617.39058 153.80342 632.05859 162.59375 632.05859 162.59375 L 653.13672 137.04102 C 653.13672 137.04102 622.27718 109.50797 605.41406 97.619141 C 601.22483 94.665633 597.10254 91.263167 592.20703 89.744141 C 588.86394 88.706804 585.22071 87.836615 581.66406 87.773438 z "
       transform="matrix(0.26458333,0,0,0.26458333,6.4077612,8.4974639)"
       id="path908" />
    <ellipse
       style="fill:#000000;fill-opacity:1;stroke:#000000;stroke-width:1.32291663;stroke-linecap:round;stroke-linejoin:round;stroke-miterlimit:4;stroke-dasharray:none;stroke-opacity:1"
       id="path910"
       cx="-17.8274"
       cy="47.375771"
       rx="2.5888805"
       ry="4.361671"
       inkscape:transform-center-y="4.2831075"
       transform="rotate(-38.521295)"
       inkscape:transform-center-x="-0.82412059" />
    <path
       style="fill:none;stroke:#000000;stroke-width:1.32291667;stroke-linecap:round;stroke-linejoin:miter;stroke-miterlimit:4;stroke-dasharray:none;stroke-opacity:1"
       d="m 86.020551,144.27682 c 0,0 -2.50623,-14.39037 -4.836502,-21.28191 C 77.512906,112.13791 72.255147,101.8521 66.892516,91.723242 57.711779,74.382864 48.320314,56.954237 36.368409,41.39382 35.012682,39.628766 33.425305,38.036211 31.745431,36.576269 31.279968,36.171745 30.85442,35.588472 30.245029,35.493927 c -1.2433,-0.192891 -2.477605,0.582172 -3.586349,1.17689 -1.978168,1.061069 -3.529801,2.774291 -5.288606,4.169145 -1.705724,1.352758 -5.105309,4.073196 -5.105309,4.073196"
       id="path912"
       inkscape:connector-curvature="0"
       sodipodi:nodetypes="caaaaaaac" />
    <path
       style="fill:#000000;stroke:#000000;stroke-width:1.32291667;stroke-linecap:round;stroke-linejoin:miter;stroke-miterlimit:4;stroke-dasharray:none;stroke-opacity:1"
       d="m 19.335725,45.873785 c 0,0 1.263762,-1.683901 1.990005,-2.442477 0.786366,-0.821375 2.548378,-2.267827 2.548378,-2.267827"
       id="path914"
       inkscape:connector-curvature="0"
       sodipodi:nodetypes="cac" />
    <path
       style="fill:#000000;stroke:#000000;stroke-width:1.32291667;stroke-linecap:round;stroke-linejoin:miter;stroke-miterlimit:4;stroke-dasharray:none;stroke-opacity:1"
       d="m 20.565556,47.331225 2.173266,-2.538406"
       id="path916"
       inkscape:connector-curvature="0"
       sodipodi:nodetypes="cc" />
    <ellipse
       style="fill:#000000;fill-opacity:1;stroke:#000000;stroke-width:1.32291663;stroke-linecap:round;stroke-linejoin:round;stroke-miterlimit:4;stroke-dasharray:none;stroke-opacity:1"
       id="path910-7"
       cx="-168.08939"
       cy="-72.23922"
       rx="2.5888805"
       ry="4.361671"
       inkscape:transform-center-y="4.2831075"
       transform="matrix(-0.78237674,-0.62280545,-0.62280545,0.78237674,0,0)"
       inkscape:transform-center-x="-0.82412059" />
    <path
       style="fill:none;stroke:#000000;stroke-width:1.32291667;stroke-linecap:round;stroke-linejoin:miter;stroke-miterlimit:4;stroke-dasharray:none;stroke-opacity:1"
       d="m 106.0378,144.27682 c 0,0 2.50623,-14.39038 4.8365,-21.28192 3.67114,-10.85699 8.9289,-21.1428 14.29153,-31.271661 9.18074,-17.340378 18.57221,-34.769004 30.52411,-50.329422 1.35573,-1.765054 2.9431,-3.357609 4.62298,-4.817551 0.46546,-0.404524 0.89101,-0.987797 1.5004,-1.082342 1.2433,-0.192891 2.47761,0.582172 3.58635,1.17689 1.97817,1.061069 3.5298,2.77429 5.2886,4.169145 1.70573,1.352758 5.10531,4.073196 5.10531,4.073196"
       id="path912-9"
       inkscape:connector-curvature="0"
       sodipodi:nodetypes="caaaaaaac" />
    <path
       style="fill:#000000;stroke:#000000;stroke-width:1.32291667;stroke-linecap:round;stroke-linejoin:miter;stroke-miterlimit:4;stroke-dasharray:none;stroke-opacity:1"
       d="m 172.72262,45.873782 c 0,0 -1.26376,-1.683902 -1.99,-2.442477 -0.78637,-0.821375 -2.54838,-2.267827 -2.54838,-2.267827"
       id="path914-4"
       inkscape:connector-curvature="0"
       sodipodi:nodetypes="cac" />
    <path
       style="fill:#000000;stroke:#000000;stroke-width:1.32291667;stroke-linecap:round;stroke-linejoin:miter;stroke-miterlimit:4;stroke-dasharray:none;stroke-opacity:1"
       d="m 171.49279,47.331221 -2.17326,-2.538405"
       id="path916-5"
       inkscape:connector-curvature="0"
       sodipodi:nodetypes="cc" />
    <path
       style="fill:none;fill-rule:evenodd;stroke:#000000;stroke-width:3.10444427;stroke-opacity:1"
       inkscape:connector-curvature="0"
       d="M 184.08653,10.049686 183.1933,127.63036 c -1.94916,49.45939 -40.46056,88.63079 -87.164162,88.65847 C 49.367605,216.22813 10.84181,177.04268 8.8650397,127.63036 L 7.9718198,10.049686 H 96.027043 Z"
       id="path10563-0-6-7-5"
       sodipodi:nodetypes="ccccccc" />
  </g>
</svg>

<svg xmlns="http://www.w3.org/2000/svg" width="677.453" height="791.22" viewBox="0 0 179.243 209.344"><g transform="translate(-6.408 -8.497)"><path style="fill:#fff;fill-rule:evenodd;stroke:none;stroke-width:3.10444427;stroke-opacity:1" d="m184.087 10.05-.894 117.58c-1.949 49.46-40.46 88.631-87.164 88.659-46.661-.06-85.187-39.246-87.164-88.659L7.972 10.05h88.055z"/><path style="fill:red;fill-opacity:1;stroke:#000;stroke-width:7.99999952;stroke-linecap:round;stroke-linejoin:round;stroke-miterlimit:4;stroke-dasharray:none;stroke-opacity:1" d="M5.912 5.867 7.03 152.912l151.905 290.2 87.423 167.011 91.721 175.225c.217 0 .432.005.649.006.215 0 .43-.006.646-.006l91.723-175.225 104.168-199.002 135.16-258.209L671.54 5.867H562.658L338.727 433.664 114.795 5.867H5.912z" transform="matrix(.26458 0 0 .26458 6.408 8.497)"/><path style="fill:#fff;stroke:#000;stroke-width:5;stroke-linecap:butt;stroke-linejoin:round;stroke-miterlimit:4;stroke-dasharray:none;stroke-opacity:1;fill-opacity:1" d="M95.79 87.773c-3.558.064-7.2.934-10.544 1.971-4.895 1.52-9.018 4.922-13.207 7.875-16.863 11.889-47.723 39.422-47.723 39.422l21.079 25.553s14.668-8.79 21.88-13.38c6.498-4.133 19.268-12.745 19.268-12.745s-2.102 18.52-4.88 27.357c-2.799 8.897-11.737 25.4-11.737 25.4s90.629 122.8 127.138 189.545c28.455 52.02 52.912 106.637 70.946 163.122 12.128 37.986 24.685 117.05 24.685 117.05s20.697-67.483 20.61-102.252c-.141-55.887-15.11-111.572-33.955-164.187-28.887-80.648-75.443-154.062-119.579-227.483-13.23-22.009-26.427-44.382-43.406-63.648-4.224-4.794-8.307-10.633-14.351-12.705-1.987-.681-4.09-.932-6.225-.895zm485.874 0c-2.134-.037-4.238.214-6.225.895-6.044 2.072-10.127 7.911-14.351 12.705-16.979 19.266-30.176 41.64-43.406 63.648-44.136 73.421-90.692 146.835-119.578 227.483-18.846 52.615-33.815 108.3-33.956 164.187-.087 34.77 20.61 102.252 20.61 102.252s12.557-79.066 24.685-117.052c18.035-56.485 42.491-111.1 70.946-163.12 36.51-66.745 127.138-189.544 127.138-189.544s-8.938-16.504-11.736-25.4c-2.779-8.837-4.88-27.358-4.88-27.358s12.77 8.612 19.267 12.746c7.213 4.588 21.88 13.379 21.88 13.379l21.079-25.553s-30.86-27.533-47.723-39.422c-4.19-2.953-8.311-6.356-13.207-7.875-3.343-1.037-6.986-1.907-10.543-1.97z" transform="matrix(.26458 0 0 .26458 6.408 8.497)"/><ellipse style="fill:#000;fill-opacity:1;stroke:#000;stroke-width:1.32291663;stroke-linecap:round;stroke-linejoin:round;stroke-miterlimit:4;stroke-dasharray:none;stroke-opacity:1" cx="-17.827" cy="47.376" rx="2.589" ry="4.362" transform="rotate(-38.521)"/><path style="fill:none;stroke:#000;stroke-width:1.32291667;stroke-linecap:round;stroke-linejoin:miter;stroke-miterlimit:4;stroke-dasharray:none;stroke-opacity:1" d="M86.02 144.277s-2.506-14.39-4.836-21.282c-3.671-10.857-8.929-21.143-14.291-31.272-9.181-17.34-18.573-34.769-30.525-50.33-1.355-1.764-2.943-3.357-4.623-4.817-.465-.404-.89-.988-1.5-1.082-1.243-.193-2.478.582-3.586 1.177-1.978 1.06-3.53 2.774-5.289 4.169a2097.746 2097.746 0 0 0-5.105 4.073"/><path style="fill:#000;stroke:#000;stroke-width:1.32291667;stroke-linecap:round;stroke-linejoin:miter;stroke-miterlimit:4;stroke-dasharray:none;stroke-opacity:1" d="M19.336 45.874s1.263-1.684 1.99-2.443c.786-.821 2.548-2.268 2.548-2.268M20.566 47.331l2.173-2.538"/><ellipse style="fill:#000;fill-opacity:1;stroke:#000;stroke-width:1.32291663;stroke-linecap:round;stroke-linejoin:round;stroke-miterlimit:4;stroke-dasharray:none;stroke-opacity:1" cx="-168.089" cy="-72.239" rx="2.589" ry="4.362" transform="scale(-1 1) rotate(-38.521)"/><path style="fill:none;stroke:#000;stroke-width:1.32291667;stroke-linecap:round;stroke-linejoin:miter;stroke-miterlimit:4;stroke-dasharray:none;stroke-opacity:1" d="M106.038 144.277s2.506-14.39 4.836-21.282c3.671-10.857 8.93-21.143 14.292-31.272 9.18-17.34 18.572-34.769 30.524-50.33 1.356-1.764 2.943-3.357 4.623-4.817.465-.404.89-.988 1.5-1.082 1.244-.193 2.478.582 3.587 1.177 1.978 1.06 3.53 2.774 5.288 4.169a2096.58 2096.58 0 0 1 5.106 4.073"/><path style="fill:#000;stroke:#000;stroke-width:1.32291667;stroke-linecap:round;stroke-linejoin:miter;stroke-miterlimit:4;stroke-dasharray:none;stroke-opacity:1" d="M172.723 45.874s-1.264-1.684-1.99-2.443c-.787-.821-2.549-2.268-2.549-2.268M171.493 47.331l-2.173-2.538"/><path style="fill:none;fill-rule:evenodd;stroke:#000;stroke-width:3.10444427;stroke-opacity:1" d="m184.087 10.05-.894 117.58c-1.949 49.46-40.46 88.631-87.164 88.659-46.661-.06-85.187-39.246-87.164-88.659L7.972 10.05h88.055z"/></g></svg>
